assets/build/gfx/icons/twitter.svg

<svg width="60" height="49" viewBox="0 0 60 49" fill="none" xmlns="http://www.w3.org/2000/svg">
<path d="M60 5.76454C57.7973 6.74873 55.4184 7.40486 52.9345 7.69731C55.4765 6.17322 57.4224 3.76054 58.3466 0.890458C55.9676 2.29644 53.3319 3.3275 50.5311 3.87865C48.2816 1.48847 45.0834 0 41.5441 0C34.7485 0 29.2408 5.50772 29.2408 12.3033C29.2408 13.2631 29.3457 14.2005 29.5576 15.104C19.3295 14.5885 10.26 9.69006 4.19171 2.24021C3.13629 4.05674 2.5289 6.17697 2.5289 8.42655C2.5289 12.6914 4.69599 16.4632 8.001 18.6678C5.98575 18.6096 4.08861 18.0472 2.42392 17.1324C2.42392 17.1793 2.42392 17.2374 2.42392 17.2843C2.42392 23.2475 6.66625 28.2285 12.3014 29.3514C11.2704 29.6326 10.1812 29.7844 9.05643 29.7844C8.2597 29.7844 7.49859 29.7019 6.73749 29.5613C8.30844 34.4467 12.8545 38.0085 18.231 38.1154C14.013 41.4185 8.71712 43.3887 2.94132 43.3887C1.94589 43.3887 0.972943 43.3306 0 43.2125C5.46085 46.7162 11.9265 48.7427 18.8758 48.7427C41.5122 48.7427 53.8961 29.985 53.8961 13.7224C53.8961 13.1844 53.8849 12.6558 53.8605 12.129C56.262 10.4062 58.3484 8.23908 60 5.76642V5.76454Z" fill="white"/>
</svg>

<svg width="60" height="49" fill="none" xmlns="http://www.w3.org/2000/svg"><path d="M60 5.765a24.26 24.26 0 0 1-7.066 1.932A12.375 12.375 0 0 0 58.347.89a24.765 24.765 0 0 1-7.817 2.99A12.308 12.308 0 0 0 41.544 0C34.75 0 29.241 5.508 29.241 12.303c0 .96.105 1.897.317 2.801C19.329 14.589 10.26 9.69 4.192 2.24a12.296 12.296 0 0 0-1.663 6.187 12.29 12.29 0 0 0 5.472 10.24 12.308 12.308 0 0 1-5.577-1.535v.152c0 5.963 4.242 10.945 9.877 12.067a12.284 12.284 0 0 1-5.564.21c1.571 4.886 6.117 8.447 11.494 8.554a24.69 24.69 0 0 1-15.29 5.274c-.995 0-1.968-.058-2.941-.177a34.808 34.808 0 0 0 18.876 5.53c22.636 0 35.02-18.757 35.02-35.02 0-.538-.011-1.066-.035-1.593A24.775 24.775 0 0 0 60 5.766v-.001z" fill="#fff"/></svg>
